cloud.svg

<?xml version="1.0" encoding="UTF-8"?>
<svg width="24px" height="16px" viewBox="0 0 24 16" version="1.1" xmlns="http://www.w3.org/2000/svg" xmlns:xlink="http://www.w3.org/1999/xlink">
    <!-- Generator: Sketch 52.5 (67469) - http://www.bohemiancoding.com/sketch -->
    <title>cloud_queue</title>
    <desc>Created with Sketch.</desc>
    <g id="Icons" stroke="none" stroke-width="1" fill="none" fill-rule="evenodd">
        <g id="Outlined" transform="translate(-304.000000, -2284.000000)">
            <g id="File" transform="translate(100.000000, 2226.000000)">
                <g id="Outlined-/-File-/-cloud_queue" transform="translate(204.000000, 54.000000)">
                    <g>
                        <polygon id="Path" points="0 0 24 0 24 24 0 24"></polygon>
                        <path d="M19.35,10.04 C18.67,6.59 15.64,4 12,4 C9.11,4 6.6,5.64 5.35,8.04 C2.34,8.36 0,10.91 0,14 C0,17.31 2.69,20 6,20 L19,20 C21.76,20 24,17.76 24,15 C24,12.36 21.95,10.22 19.35,10.04 Z M19,18 L6,18 C3.79,18 2,16.21 2,14 C2,11.79 3.79,10 6,10 L6.71,10 C7.37,7.69 9.48,6 12,6 C15.04,6 17.5,8.46 17.5,11.5 L17.5,12 L19,12 C20.66,12 22,13.34 22,15 C22,16.66 20.66,18 19,18 Z" id="🔹-Icon-Color" fill="#1D1D1D"></path>
                    </g>
                </g>
            </g>
        </g>
    </g>
</svg>

<?xml version="1.0" encoding="utf-8"?>
<!-- Generator: Adobe Illustrator 24.1.3, SVG Export Plug-In . SVG Version: 6.00 Build 0)  -->
<svg version="1.1" id="Warstwa_1" xmlns="http://www.w3.org/2000/svg" xmlns:xlink="http://www.w3.org/1999/xlink" x="0px" y="0px"
	 viewBox="0 0 24 16" style="enable-background:new 0 0 24 16;" xml:space="preserve">
<style type="text/css">
	.st0{fill:none;}
	.st1{fill-rule:evenodd;clip-rule:evenodd;}
</style>
<desc>Created with Sketch.</desc>
<g id="Icons">
	<g id="Outlined" transform="translate(-304.000000, -2284.000000)">
		<g id="File" transform="translate(100.000000, 2226.000000)">
			<g id="Outlined-_x2F_-File-_x2F_-cloud_x5F_queue" transform="translate(204.000000, 54.000000)">
				<g>
					<polygon id="Path" class="st0" points="0,0 24,0 24,24 0,24 					"/>
					<path id="_xD83D__xDD39_-Icon-Color" class="st1" d="M19.4,10c-0.7-3.4-3.7-6-7.4-6C9.1,4,6.6,5.6,5.3,8C2.3,8.4,0,10.9,0,14
						c0,3.3,2.7,6,6,6h13c2.8,0,5-2.2,5-5C24,12.4,22,10.2,19.4,10z M19,18H6c-2.2,0-4-1.8-4-4s1.8-4,4-4h0.7C7.4,7.7,9.5,6,12,6
						c3,0,5.5,2.5,5.5,5.5V12H19c1.7,0,3,1.3,3,3S20.7,18,19,18z"/>
				</g>
			</g>
		</g>
	</g>
</g>
</svg>
